;FLAVOR:Marlin
;TIME:6361
;Filament used: 4.1176m
;Layer height: 0.3
;Generated with Cura_SteamEngine 3.3.1
M190 S65
M104 S200
M109 S200
M82 ;absolute extrusion mode
G28 ;Home
G1 Z15.0 F6000 ;Move the platform down 15mm
;Prime the extruder
G92 E0
G1 F200 E3
G92 E0
G92 E0
G1 F2400 E-3
;LAYER_COUNT:151
;LAYER:0
M107
M204 S5000
M205 X30 Y30
G0 F3600 X139.493 Y139.015 Z0.2
M204 S500
M205 X20 Y20
;TYPE:SKIRT
G1 F2400 E0
G1 F600 X141.068 Y137.681 E0.12276
G1 X141.62 Y137.287 E0.1631
G1 X143.393 Y136.229 E0.2859
G1 X143.93 Y135.959 E0.32165
G1 X145.363 Y135.366 E0.41389
G1 X145.841 Y135.202 E0.44394
G1 X147.335 Y134.789 E0.53613
G1 X147.843 Y134.683 E0.567
G1 X149.376 Y134.461 E0.65913
G1 X149.967 Y134.418 E0.69437
G1 X152.032 Y134.418 E0.81719
G1 X152.711 Y134.474 E0.85771
G1 X154.749 Y134.814 E0.9806
G1 X155.245 Y134.929 E1.01088
G1 X156.234 Y135.223 E1.07225
G1 X156.639 Y135.366 E1.09779
G1 X158.072 Y135.96 E1.19006
G1 X158.603 Y136.227 E1.22541
G1 X160.377 Y137.284 E1.34823
G1 X160.869 Y137.628 E1.38393
G1 X162.071 Y138.606 E1.4761
G1 X162.444 Y138.95 E1.50628
G1 X163.517 Y140.068 E1.59844
G1 X163.809 Y140.407 E1.62505
G1 X164.443 Y141.23 E1.68684
G1 X164.761 Y141.708 E1.72099
G1 X165.009 Y142.225 E1.75509
G1 X165.183 Y142.772 E1.78923
G1 X165.28 Y143.338 E1.82339
G1 X165.3 Y143.747 E1.84774
G1 X165.3 Y144.75 E1.9074
G1 X165.26 Y145.323 E1.94156
G1 X165.141 Y145.884 E1.97567
G1 X164.945 Y146.424 E2.00984
G1 X164.724 Y146.84 E2.03785
G1 X164.765 Y146.891 E2.04175
G1 X165.059 Y147.385 E2.07594
G1 X165.281 Y147.914 E2.11006
G1 X165.427 Y148.469 E2.14419
G1 X165.5 Y149.241 E2.19031
G1 X165.5 Y152.763 E2.39979
G1 X165.46 Y153.336 E2.43395
G1 X165.341 Y153.897 E2.46806
G1 X165.145 Y154.437 E2.50223
G1 X164.876 Y154.944 E2.53636
G1 X164.72 Y155.16 E2.55221
G1 X164.878 Y155.432 E2.57092
G1 X165.094 Y155.963 E2.60501
G1 X165.235 Y156.52 E2.63919
G1 X165.3 Y157.25 E2.68278
G1 X165.3 Y158.26 E2.74285
G1 X165.26 Y158.833 E2.77701
G1 X165.141 Y159.394 E2.81112
G1 X164.945 Y159.934 E2.84529
G1 X164.676 Y160.441 E2.87942
G1 X164.324 Y160.924 E2.91497
G1 X162.99 Y162.501 E3.03782
G1 X162.508 Y162.984 E3.07841
G1 X160.934 Y164.318 E3.20112
G1 X160.38 Y164.714 E3.24162
G1 X158.606 Y165.772 E3.36448
G1 X158.07 Y166.041 E3.40014
G1 X156.637 Y166.634 E3.49238
G1 X156.159 Y166.798 E3.52244
G1 X154.665 Y167.211 E3.61463
G1 X154.157 Y167.317 E3.6455
G1 X152.624 Y167.539 E3.73762
G1 X152.033 Y167.582 E3.77287
G1 X149.967 Y167.582 E3.89575
G1 X149.374 Y167.539 E3.93111
G1 X147.84 Y167.316 E4.02331
G1 X147.336 Y167.21 E4.05394
G1 X145.843 Y166.798 E4.14605
G1 X145.282 Y166.599 E4.18146
G1 X143.391 Y165.769 E4.30429
G1 X142.794 Y165.446 E4.34466
G1 X141.065 Y164.317 E4.46747
G1 X140.525 Y163.897 E4.50816
G1 X139.006 Y162.498 E4.63099
G1 X138.598 Y162.063 E4.66646
G1 X137.622 Y160.86 E4.75859
G1 X137.292 Y160.39 E4.79275
G1 X137.03 Y159.879 E4.82691
G1 X136.843 Y159.336 E4.86106
G1 X136.732 Y158.773 E4.89519
G1 X136.7 Y158.261 E4.9257
G1 X136.7 Y157.25 E4.98583
G1 X136.74 Y156.677 E5.02
G1 X136.859 Y156.116 E5.05411
G1 X137.055 Y155.576 E5.08827
G1 X137.324 Y155.069 E5.12241
G1 X137.661 Y154.604 E5.15657
G1 X138.059 Y154.19 E5.19072
G1 X138.51 Y153.836 E5.22482
G1 X138.702 Y153.724 E5.23804
G1 X138.702 Y148.282 E5.56171
G1 X138.644 Y148.251 E5.56563
G1 X138.179 Y147.914 E5.59978
G1 X137.765 Y147.516 E5.63394
G1 X137.411 Y147.065 E5.66804
G1 X137.122 Y146.568 E5.70223
G1 X136.906 Y146.037 E5.73633
G1 X136.765 Y145.48 E5.7705
G1 X136.7 Y144.75 E5.81409
G1 X136.7 Y143.74 E5.87416
G1 X136.74 Y143.167 E5.90833
G1 X136.859 Y142.606 E5.94243
G1 X137.055 Y142.066 E5.9766
G1 X137.324 Y141.559 E6.01074
G1 X137.676 Y141.076 E6.04628
G1 X139.01 Y139.499 E6.16914
G1 X139.493 Y139.015 E6.2098
M204 S5000
M205 X30 Y30
G0 F3600 X139.978 Y139.588
M204 S500
M205 X20 Y20
G1 F600 X141.553 Y138.254 E6.33257
G1 X142.005 Y137.931 E6.36561
G1 X143.778 Y136.873 E6.48841
G1 X144.216 Y136.652 E6.51759
G1 X145.649 Y136.059 E6.60983
G1 X146.041 Y135.925 E6.63447
G1 X147.535 Y135.512 E6.72666
G1 X147.95 Y135.425 E6.75188
G1 X149.483 Y135.203 E6.844
G1 X149.967 Y135.168 E6.87287
G1 X152.032 Y135.168 E6.99568
G1 X152.587 Y135.214 E7.02881
G1 X154.625 Y135.554 E7.1517
G1 X155.032 Y135.648 E7.17654
G1 X156.021 Y135.942 E7.23791
G1 X156.351 Y136.059 E7.25873
G1 X157.784 Y136.653 E7.35099
G1 X158.22 Y136.872 E7.38001
G1 X159.994 Y137.929 E7.50283
G1 X160.396 Y138.21 E7.532
G1 X161.598 Y139.188 E7.62417
G1 X161.903 Y139.469 E7.64884
G1 X162.976 Y140.587 E7.741
G1 X163.215 Y140.864 E7.76276
G1 X163.849 Y141.687 E7.82455
G1 X164.133 Y142.122 E7.85545
G1 X164.347 Y142.595 E7.88633
G1 X164.486 Y143.095 E7.91719
G1 X164.55 Y143.747 E7.95616
G1 X164.55 Y144.75 E8.01581
G1 X164.51 Y145.268 E8.04671
G1 X164.391 Y145.773 E8.07757
G1 X164.196 Y146.254 E8.10844
G1 X163.93 Y146.7 E8.13933
G1 X163.779 Y146.882 E8.15339
G1 X164.047 Y147.179 E8.17719
G1 X164.332 Y147.614 E8.20812
G1 X164.546 Y148.087 E8.23899
G1 X164.686 Y148.587 E8.26988
G1 X164.75 Y149.241 E8.30896
G1 X164.75 Y152.763 E8.51844
G1 X164.71 Y153.281 E8.54934
G1 X164.591 Y153.786 E8.58019
G1 X164.396 Y154.267 E8.61106
G1 X164.13 Y154.713 E8.64195
G1 X163.798 Y155.112 E8.67282
G1 X163.786 Y155.123 E8.67379
G1 X163.868 Y155.216 E8.68117
G1 X164.148 Y155.653 E8.71203
G1 X164.358 Y156.128 E8.74292
G1 X164.493 Y156.63 E8.77384
G1 X164.55 Y157.25 E8.81087
G1 X164.55 Y158.26 E8.87094
G1 X164.51 Y158.778 E8.90184
G1 X164.391 Y159.283 E8.9327
G1 X164.196 Y159.764 E8.96357
G1 X163.93 Y160.21 E8.99446
G1 X163.752 Y160.44 E9.01176
G1 X162.418 Y162.017 E9.13461
G1 X162.023 Y162.412 E9.16783
G1 X160.449 Y163.746 E9.29055
G1 X159.996 Y164.07 E9.32367
G1 X158.222 Y165.128 E9.44652
G1 X157.784 Y165.348 E9.47568
G1 X156.351 Y165.941 E9.56792
G1 X155.959 Y166.075 E9.59255
G1 X154.465 Y166.488 E9.68475
G1 X154.05 Y166.575 E9.70997
G1 X152.517 Y166.797 E9.80209
G1 X152.033 Y166.832 E9.83096
G1 X149.967 Y166.832 E9.95383
G1 X149.481 Y166.797 E9.98281
G1 X147.947 Y166.574 E10.07501
G1 X147.535 Y166.487 E10.10006
G1 X146.042 Y166.075 E10.19217
G1 X145.584 Y165.912 E10.22109
G1 X143.693 Y165.082 E10.34391
G1 X143.204 Y164.818 E10.37697
G1 X141.475 Y163.689 E10.49978
G1 X141.034 Y163.346 E10.53301
G1 X139.515 Y161.947 E10.65584
G1 X139.18 Y161.59 E10.68495
G1 X138.204 Y160.387 E10.77709
G1 X137.909 Y159.96 E10.80796
G1 X137.683 Y159.493 E10.83882
G1 X137.531 Y158.996 E10.86973
G1 X137.45 Y158.261 E10.91371
G1 X137.45 Y157.25 E10.97384
G1 X137.49 Y156.732 E11.00474
G1 X137.609 Y156.227 E11.0356
G1 X137.804 Y155.746 E11.06647
G1 X138.07 Y155.3 E11.09735
G1 X138.402 Y154.901 E11.12822
G1 X138.791 Y154.557 E11.15911
G1 X139.228 Y154.277 E11.18998
G1 X139.452 Y154.178 E11.20454
G1 X139.452 Y147.824 E11.58246
G1 X139.321 Y147.771 E11.59086
G1 X138.875 Y147.505 E11.62175
G1 X138.476 Y147.173 E11.65262
G1 X138.132 Y146.784 E11.68351
G1 X137.852 Y146.347 E11.71438
G1 X137.642 Y145.872 E11.74527
G1 X137.507 Y145.37 E11.77618
G1 X137.45 Y144.75 E11.81321
G1 X137.45 Y143.74 E11.87329
G1 X137.49 Y143.222 E11.90419
G1 X137.609 Y142.717 E11.93504
G1 X137.804 Y142.236 E11.96591
G1 X138.07 Y141.79 E11.9968
G1 X138.248 Y141.56 E12.0141
G1 X139.582 Y139.983 E12.13695
G1 X139.978 Y139.588 E12.17022
M204 S5000
M205 X30 Y30
G0 F3600 X140.462 Y140.16
M204 S500
M205 X20 Y20
G1 F600 X142.037 Y138.826 E12.29298
G1 X142.389 Y138.575 E12.31869
G1 X144.162 Y137.517 E12.44149
G1 X144.503 Y137.345 E12.46421
G1 X145.936 Y136.752 E12.55645
G1 X146.241 Y136.648 E12.57561
G1 X147.735 Y136.235 E12.6678
G1 X148.058 Y136.167 E12.68743
G1 X149.591 Y135.945 E12.77956
G1 X149.967 Y135.918 E12.80198
G1 X152.032 Y135.918 E12.9248
G1 X152.464 Y135.954 E12.95059
G1 X154.502 Y136.294 E13.07347
G1 X154.818 Y136.367 E13.09276
G1 X155.807 Y136.661 E13.15413
G1 X156.064 Y136.752 E13.17035
G1 X157.497 Y137.346 E13.26261
G1 X157.836 Y137.516 E13.28516
G1 X159.61 Y138.573 E13.40798
G1 X159.923 Y138.792 E13.4307
G1 X161.125 Y139.77 E13.52287
G1 X161.362 Y139.988 E13.54202
G1 X162.435 Y141.106 E13.63419
G1 X162.621 Y141.322 E13.65114
G1 X163.255 Y142.145 E13.71293
G1 X163.501 Y142.531 E13.74015
G1 X163.677 Y142.953 E13.76735
G1 X163.777 Y143.4 E13.79459
G1 X163.8 Y143.747 E13.81528
G1 X163.8 Y144.75 E13.87493
G1 X163.76 Y145.206 E13.90216
G1 X163.642 Y145.648 E13.92937
G1 X163.448 Y146.063 E13.95661
G1 X163.185 Y146.438 E13.98385
G1 X162.861 Y146.762 E14.01111
G1 X162.616 Y146.933 E14.02888
G1 X162.665 Y146.955 E14.03207
G1 X163.042 Y147.214 E14.05928
G1 X163.369 Y147.534 E14.08649
G1 X163.635 Y147.907 E14.11374
G1 X163.833 Y148.32 E14.14098
G1 X163.956 Y148.761 E14.16821
G1 X164 Y149.241 E14.19688
G1 X164 Y152.763 E14.40635
G1 X163.96 Y153.219 E14.43358
G1 X163.842 Y153.661 E14.46079
G1 X163.648 Y154.076 E14.48803
G1 X163.385 Y154.451 E14.51528
G1 X163.061 Y154.775 E14.54253
G1 X162.686 Y155.037 E14.56974
G1 X162.618 Y155.068 E14.57418
G1 X162.863 Y155.24 E14.59198
G1 X163.187 Y155.564 E14.61924
G1 X163.449 Y155.939 E14.64645
G1 X163.642 Y156.354 E14.67367
G1 X163.76 Y156.796 E14.70088
G1 X163.8 Y157.25 E14.72798
G1 X163.8 Y158.26 E14.78805
G1 X163.76 Y158.716 E14.81528
G1 X163.642 Y159.158 E14.84249
G1 X163.448 Y159.573 E14.86974
G1 X163.179 Y159.955 E14.89752
G1 X161.845 Y161.532 E15.02038
G1 X161.538 Y161.84 E15.04624
G1 X159.964 Y163.174 E15.16896
G1 X159.612 Y163.425 E15.19467
G1 X157.838 Y164.483 E15.31752
G1 X157.497 Y164.655 E15.34024
G1 X156.064 Y165.248 E15.43248
G1 X155.759 Y165.352 E15.45164
G1 X154.265 Y165.765 E15.54383
G1 X153.942 Y165.833 E15.56346
G1 X152.409 Y166.055 E15.65559
G1 X152.033 Y166.082 E15.67801
G1 X149.967 Y166.082 E15.80089
G1 X149.589 Y166.055 E15.82343
G1 X148.055 Y165.832 E15.91563
G1 X147.735 Y165.764 E15.93508
G1 X146.242 Y165.352 E16.0272
G1 X145.885 Y165.226 E16.04972
G1 X143.994 Y164.396 E16.17255
G1 X143.614 Y164.19 E16.19825
G1 X141.885 Y163.061 E16.32107
G1 X141.542 Y162.794 E16.34692
G1 X140.023 Y161.395 E16.46975
G1 X139.763 Y161.118 E16.49234
G1 X138.787 Y159.915 E16.58448
G1 X138.53 Y159.536 E16.61172
G1 X138.344 Y159.117 E16.63898
G1 X138.233 Y158.673 E16.6662
G1 X138.2 Y158.261 E16.69079
G1 X138.2 Y157.25 E16.75092
G1 X138.24 Y156.794 E16.77814
G1 X138.358 Y156.352 E16.80535
G1 X138.552 Y155.937 E16.8326
G1 X138.815 Y155.562 E16.85984
G1 X139.139 Y155.238 E16.88709
G1 X139.514 Y154.976 E16.9143
G1 X139.929 Y154.783 E16.94152
G1 X140.202 Y154.71 E16.95833
G1 X140.202 Y147.29 E17.39965
G1 X139.927 Y147.217 E17.41657
G1 X139.512 Y147.023 E17.44381
G1 X139.137 Y146.76 E17.47106
G1 X138.813 Y146.436 E17.49831
G1 X138.551 Y146.061 E17.52552
G1 X138.358 Y145.646 E17.55274
G1 X138.24 Y145.204 E17.57995
G1 X138.2 Y144.75 E17.60706
G1 X138.2 Y143.74 E17.66713
G1 X138.24 Y143.284 E17.69435
G1 X138.358 Y142.842 E17.72156
G1 X138.552 Y142.427 E17.74881
G1 X138.821 Y142.045 E17.7766
G1 X140.155 Y140.468 E17.89945
G1 X140.462 Y140.16 E17.92531
M204 S5000
M205 X30 Y30
G0 F3600 X140.947 Y140.732
M204 S500
M205 X20 Y20
G1 F600 X142.522 Y139.398 E18.04807
G1 X142.773 Y139.219 E18.06641
G1 X144.546 Y138.161 E18.18921
G1 X144.79 Y138.038 E18.20546
G1 X146.223 Y137.445 E18.2977
G1 X146.44 Y137.371 E18.31134
G1 X147.934 Y136.958 E18.40353
G1 X148.165 Y136.909 E18.41757
G1 X149.698 Y136.687 E18.5097
G1 X149.967 Y136.668 E18.52574
G1 X152.032 Y136.668 E18.64856
G1 X152.341 Y136.694 E18.667
G1 X154.379 Y137.034 E18.78989
G1 X154.604 Y137.086 E18.80363
G1 X155.593 Y137.38 E18.86499
G1 X155.777 Y137.445 E18.8766
G1 X157.21 Y138.039 E18.96886
G1 X157.452 Y138.16 E18.98495
G1 X159.226 Y139.217 E19.10777
G1 X159.449 Y139.374 E19.12399
G1 X160.651 Y140.352 E19.21616
G1 X160.821 Y140.508 E19.22988
G1 X161.894 Y141.626 E19.32205
G1 X162.026 Y141.78 E19.33411
G1 X162.66 Y142.603 E19.3959
G1 X162.864 Y142.932 E19.41892
G1 X162.995 Y143.296 E19.44193
G1 X163.05 Y143.747 E19.46896
G1 X163.05 Y144.75 E19.52861
G1 X163.01 Y145.135 E19.55163
G1 X162.892 Y145.503 E19.57462
G1 X162.701 Y145.839 E19.59761
G1 X162.445 Y146.129 E19.62061
G1 X162.135 Y146.361 E19.64364
G1 X161.784 Y146.523 E19.66663
G1 X161.407 Y146.611 E19.68966
G1 X161.175 Y146.625 E19.70348
G1 X160.173 Y146.625 E19.76308
G1 X159.788 Y146.585 E19.7861
G1 X159.42 Y146.467 E19.80909
G1 X159.084 Y146.276 E19.83207
G1 X158.723 Y145.938 E19.86149
G1 X157.586 Y144.55 E19.9682
G1 X156.35 Y143.494 E20.06489
G1 X154.907 Y142.646 E20.16444
G1 X154.235 Y142.363 E20.20781
G1 X152.578 Y141.914 E20.30991
G1 X151.432 Y141.79 E20.37847
G1 X149.784 Y141.864 E20.47659
G1 X148.189 Y142.221 E20.5738
G1 X146.694 Y142.85 E20.67027
G1 X145.328 Y143.735 E20.76707
G1 X145.177 Y143.875 E20.77932
G1 X156 Y143.875 E21.42304
G1 X156.385 Y143.915 E21.44606
G1 X156.753 Y144.033 E21.46904
G1 X157.089 Y144.224 E21.49203
G1 X157.379 Y144.48 E21.51504
G1 X157.611 Y144.79 E21.53807
G1 X157.773 Y145.141 E21.56106
G1 X157.861 Y145.518 E21.58408
G1 X157.875 Y145.75 E21.59791
G1 X157.875 Y156.25 E22.22241
G1 X157.835 Y156.635 E22.24543
G1 X157.717 Y157.003 E22.26842
G1 X157.526 Y157.339 E22.29141
G1 X157.27 Y157.629 E22.31441
G1 X156.96 Y157.861 E22.33744
G1 X156.609 Y158.023 E22.36044
G1 X156.232 Y158.111 E22.38346
G1 X156 Y158.125 E22.39728
G1 X145.205 Y158.125 E23.03933
G1 X145.653 Y158.508 E23.07439
G1 X147.089 Y159.351 E23.17343
G1 X147.768 Y159.638 E23.21727
G1 X149.422 Y160.086 E23.31919
G1 X150.568 Y160.21 E23.38775
G1 X152.216 Y160.136 E23.48586
G1 X153.811 Y159.779 E23.58308
G1 X155.306 Y159.15 E23.67954
G1 X156.672 Y158.265 E23.77635
G1 X157.883 Y157.134 E23.8749
G1 X158.697 Y156.094 E23.95345
G1 X158.966 Y155.816 E23.97646
G1 X159.286 Y155.598 E23.99949
G1 X159.643 Y155.451 E24.02245
G1 X160.173 Y155.375 E24.0543
G1 X161.175 Y155.375 E24.11389
G1 X161.56 Y155.415 E24.13692
G1 X161.928 Y155.533 E24.1599
G1 X162.264 Y155.724 E24.18289
G1 X162.554 Y155.98 E24.20589
G1 X162.786 Y156.29 E24.22892
G1 X162.948 Y156.641 E24.25192
G1 X163.036 Y157.018 E24.27494
G1 X163.05 Y157.25 E24.28877
G1 X163.05 Y158.26 E24.34884
G1 X163.01 Y158.645 E24.37186
G1 X162.892 Y159.013 E24.39484
G1 X162.607 Y159.471 E24.42693
G1 X161.273 Y161.048 E24.54978
G1 X161.053 Y161.267 E24.56824
G1 X159.479 Y162.601 E24.69096
G1 X159.227 Y162.781 E24.70938
G1 X157.453 Y163.839 E24.83223
G1 X157.21 Y163.962 E24.84843
G1 X155.777 Y164.555 E24.94067
G1 X155.56 Y164.629 E24.9543
G1 X154.066 Y165.042 E25.04649
G1 X153.835 Y165.091 E25.06054
G1 X152.302 Y165.313 E25.15267
G1 X152.033 Y165.332 E25.16871
G1 X149.967 Y165.332 E25.29158
G1 X149.697 Y165.312 E25.30769
G1 X148.163 Y165.089 E25.39988
G1 X147.934 Y165.041 E25.4138
G1 X146.441 Y164.629 E25.50592
G1 X146.186 Y164.539 E25.522
G1 X144.295 Y163.709 E25.64483
G1 X144.024 Y163.562 E25.66316
G1 X142.295 Y162.433 E25.78598
G1 X142.05 Y162.242 E25.80446
G1 X140.531 Y160.843 E25.92728
G1 X140.345 Y160.645 E25.94344
G1 X139.369 Y159.442 E26.03558
G1 X139.158 Y159.118 E26.05857
G1 X139.017 Y158.758 E26.08157
G1 X138.95 Y158.261 E26.11139
G1 X138.95 Y157.25 E26.17153
G1 X138.99 Y156.865 E26.19455
G1 X139.108 Y156.497 E26.21753
G1 X139.299 Y156.161 E26.24052
G1 X139.555 Y155.871 E26.26353
G1 X139.865 Y155.639 E26.28656
G1 X140.216 Y155.477 E26.30955
G1 X140.593 Y155.389 E26.33257
G1 X140.825 Y155.375 E26.3464
G1 X140.952 Y155.375 E26.35395
G1 X140.952 Y146.625 E26.87437
G1 X140.825 Y146.625 E26.88192
G1 X140.44 Y146.585 E26.90495
G1 X140.072 Y146.467 E26.92793
G1 X139.736 Y146.276 E26.95092
G1 X139.446 Y146.02 E26.97393
G1 X139.214 Y145.71 E26.99696
G1 X139.052 Y145.359 E27.01995
G1 X138.964 Y144.982 E27.04297
G1 X138.95 Y144.75 E27.0568
G1 X138.95 Y143.74 E27.11687
G1 X138.99 Y143.355 E27.13989
G1 X139.108 Y142.987 E27.16288
G1 X139.393 Y142.529 E27.19496
G1 X140.727 Y140.952 E27.31781
G1 X140.947 Y140.732 E27.33632
M204 S5000
M205 X30 Y30
G0 F3600 X141.432 Y141.305
M204 S500
M205 X20 Y20
G1 F600 X143.007 Y139.971 E27.45908
G1 X143.158 Y139.863 E27.47012
G1 X144.931 Y138.805 E27.59292
G1 X145.077 Y138.731 E27.60265
G1 X146.51 Y138.138 E27.69489
G1 X146.64 Y138.094 E27.70306
G1 X148.134 Y137.681 E27.79525
G1 X148.273 Y137.652 E27.80369
G1 X149.806 Y137.43 E27.89582
G1 X149.967 Y137.418 E27.90542
G1 X152.032 Y137.418 E28.02824
