;FLAVOR:Marlin
;TIME:2576
;Filament used: 1.99865m
;Layer height: 0.3
;Generated with Cura_SteamEngine 3.3.1
M190 S65
M104 S200
M109 S200
M82 ;absolute extrusion mode
G28 ;Home
G1 Z15.0 F6000 ;Move the platform down 15mm
;Prime the extruder
G92 E0
G1 F200 E3
G92 E0
G92 E0
G1 F2400 E-3
;LAYER_COUNT:109
;LAYER:0
M107
M204 S5000
M205 X30 Y30
G0 F3600 X136.894 Y141.869 Z0.2
M204 S500
M205 X20 Y20
;TYPE:SKIRT
G1 F2400 E0
G1 F600 X137.345 Y141.52 E0.02826
G1 X137.84 Y141.238 E0.0565
G1 X138.37 Y141.028 E0.08476
G1 X138.923 Y140.894 E0.11296
G1 X139.6 Y140.837 E0.14663
G1 X162.4 Y140.837 E1.27669
G1 X162.968 Y140.877 E1.30491
G1 X163.526 Y140.996 E1.33319
G1 X164.061 Y141.192 E1.36143
G1 X164.563 Y141.461 E1.38966
G1 X165.023 Y141.797 E1.41789
G1 X165.431 Y142.194 E1.4461
G1 X165.78 Y142.645 E1.47437
G1 X166.062 Y143.14 E1.50261
G1 X166.272 Y143.67 E1.53086
G1 X166.406 Y144.223 E1.55906
G1 X166.463 Y144.9 E1.59274
G1 X166.463 Y157.1 E2.19742
G1 X166.423 Y157.668 E2.22564
G1 X166.304 Y158.226 E2.25392
G1 X166.108 Y158.761 E2.28216
G1 X165.839 Y159.263 E2.31038
G1 X165.503 Y159.723 E2.33862
G1 X165.106 Y160.131 E2.36683
G1 X164.655 Y160.48 E2.3951
G1 X164.16 Y160.762 E2.42333
G1 X163.63 Y160.972 E2.45159
G1 X163.077 Y161.106 E2.47979
G1 X162.4 Y161.163 E2.51347
G1 X139.6 Y161.163 E3.64352
G1 X139.032 Y161.123 E3.67174
G1 X138.474 Y161.004 E3.70002
G1 X137.939 Y160.808 E3.72826
G1 X137.437 Y160.539 E3.75649
G1 X136.977 Y160.203 E3.78472
G1 X136.569 Y159.806 E3.81294
G1 X136.22 Y159.355 E3.8412
G1 X135.938 Y158.86 E3.86944
G1 X135.728 Y158.33 E3.89769
G1 X135.594 Y157.777 E3.9259
G1 X135.537 Y157.1 E3.95957
G1 X135.537 Y144.9 E4.56425
G1 X135.577 Y144.332 E4.59247
G1 X135.696 Y143.774 E4.62075
G1 X135.892 Y143.239 E4.64899
G1 X136.161 Y142.737 E4.67722
G1 X136.497 Y142.277 E4.70545
G1 X136.894 Y141.869 E4.73367
M204 S5000
M205 X30 Y30
G0 F3600 X137.505 Y142.174
M204 S500
M205 X20 Y20
G1 F600 X137.943 Y141.887 E4.75962
G1 X138.421 Y141.671 E4.78562
G1 X138.925 Y141.529 E4.81157
G1 X139.6 Y141.462 E4.84519
G1 X162.4 Y141.462 E5.97525
G1 X162.923 Y141.502 E6.00124
G1 X163.433 Y141.621 E6.0272
G1 X163.919 Y141.816 E6.05316
G1 X164.37 Y142.083 E6.07913
G1 X164.776 Y142.415 E6.10513
G1 X165.126 Y142.805 E6.1311
G1 X165.413 Y143.243 E6.15705
G1 X165.629 Y143.721 E6.18305
G1 X165.771 Y144.225 E6.209
G1 X165.838 Y144.9 E6.24262
G1 X165.838 Y157.1 E6.8473
G1 X165.798 Y157.623 E6.8733
G1 X165.679 Y158.133 E6.89926
G1 X165.484 Y158.619 E6.92521
G1 X165.217 Y159.07 E6.95119
G1 X164.885 Y159.476 E6.97718
G1 X164.495 Y159.826 E7.00316
G1 X164.057 Y160.113 E7.02911
G1 X163.579 Y160.329 E7.05511
G1 X163.075 Y160.471 E7.08106
G1 X162.4 Y160.538 E7.11468
G1 X139.6 Y160.538 E8.24474
G1 X139.077 Y160.498 E8.27073
G1 X138.567 Y160.379 E8.29669
G1 X138.081 Y160.184 E8.32264
G1 X137.63 Y159.917 E8.34862
G1 X137.224 Y159.585 E8.37462
G1 X136.874 Y159.195 E8.40059
G1 X136.587 Y158.757 E8.42654
G1 X136.371 Y158.279 E8.45254
G1 X136.229 Y157.775 E8.47849
G1 X136.162 Y157.1 E8.51211
G1 X136.162 Y144.9 E9.11679
G1 X136.202 Y144.377 E9.14279
G1 X136.321 Y143.867 E9.16875
G1 X136.516 Y143.381 E9.1947
G1 X136.783 Y142.93 E9.22068
G1 X137.115 Y142.524 E9.24667
G1 X137.505 Y142.174 E9.27264
M204 S5000
M205 X30 Y30
G0 F3600 X137.73 Y142.799
M204 S500
M205 X20 Y20
G1 F600 X138.109 Y142.515 E9.29612
G1 X138.531 Y142.298 E9.31964
G1 X138.983 Y142.156 E9.34312
G1 X139.6 Y142.087 E9.37389
G1 X162.4 Y142.087 E10.50395
G1 X162.872 Y142.127 E10.52742
G1 X163.331 Y142.246 E10.55093
G1 X163.764 Y142.44 E10.57444
G1 X164.157 Y142.703 E10.59788
G1 X164.501 Y143.03 E10.6214
G1 X164.785 Y143.409 E10.64488
G1 X165.002 Y143.831 E10.6684
G1 X165.144 Y144.283 E10.69188
G1 X165.213 Y144.9 E10.72265
G1 X165.213 Y157.1 E11.32733
G1 X165.173 Y157.572 E11.35081
G1 X165.054 Y158.031 E11.37431
G1 X164.86 Y158.464 E11.39783
G1 X164.597 Y158.857 E11.42126
G1 X164.27 Y159.201 E11.44479
G1 X163.891 Y159.485 E11.46826
G1 X163.469 Y159.702 E11.49178
G1 X163.017 Y159.844 E11.51526
G1 X162.4 Y159.913 E11.54603
G1 X139.6 Y159.913 E12.67609
G1 X139.128 Y159.873 E12.69957
G1 X138.669 Y159.754 E12.72307
G1 X138.236 Y159.56 E12.74659
G1 X137.843 Y159.297 E12.77002
G1 X137.499 Y158.97 E12.79355
G1 X137.215 Y158.591 E12.81702
G1 X136.998 Y158.169 E12.84054
G1 X136.856 Y157.717 E12.86402
G1 X136.787 Y157.1 E12.8948
G1 X136.787 Y144.9 E13.49947
G1 X136.827 Y144.428 E13.52295
G1 X136.946 Y143.969 E13.54645
G1 X137.14 Y143.536 E13.56997
G1 X137.403 Y143.143 E13.59341
G1 X137.73 Y142.799 E13.61693
M204 S5000
M205 X30 Y30
G0 F3600 X138.022 Y143.384
M204 S500
M205 X20 Y20
G1 F600 X138.339 Y143.112 E13.63764
G1 X138.702 Y142.905 E13.65835
G1 X139.097 Y142.771 E13.67902
G1 X139.6 Y142.712 E13.70412
G1 X162.4 Y142.712 E14.83418
G1 X162.816 Y142.752 E14.85489
G1 X163.217 Y142.87 E14.87561
G1 X163.588 Y143.062 E14.89631
G1 X163.916 Y143.322 E14.91706
G1 X164.188 Y143.639 E14.93776
G1 X164.395 Y144.002 E14.95847
G1 X164.529 Y144.397 E14.97915
G1 X164.588 Y144.9 E15.00425
G1 X164.588 Y157.1 E15.60893
G1 X164.548 Y157.516 E15.62964
G1 X164.43 Y157.917 E15.65036
G1 X164.238 Y158.288 E15.67106
G1 X163.978 Y158.616 E15.69181
G1 X163.661 Y158.888 E15.71251
G1 X163.298 Y159.095 E15.73322
G1 X162.903 Y159.229 E15.75389
G1 X162.4 Y159.288 E15.779
G1 X139.6 Y159.288 E16.90905
G1 X139.184 Y159.248 E16.92976
G1 X138.783 Y159.13 E16.95048
G1 X138.412 Y158.938 E16.97119
G1 X138.084 Y158.678 E16.99193
G1 X137.812 Y158.361 E17.01263
G1 X137.605 Y157.998 E17.03335
G1 X137.471 Y157.603 E17.05402
G1 X137.412 Y157.1 E17.07912
G1 X137.412 Y144.9 E17.6838
G1 X137.452 Y144.484 E17.70451
G1 X137.57 Y144.083 E17.72523
G1 X137.762 Y143.712 E17.74594
G1 X138.022 Y143.384 E17.76668
M204 S5000
M205 X30 Y30
G0 F3600 X138.635 Y143.67
M204 S500
M205 X20 Y20
G1 F600 X138.936 Y143.485 E17.78419
G1 X139.27 Y143.372 E17.80167
G1 X139.6 Y143.337 E17.81812
G1 X162.4 Y143.337 E18.94817
G1 X162.751 Y143.377 E18.96568
G1 X163.084 Y143.494 E18.98317
G1 X163.382 Y143.684 E19.00069
G1 X163.63 Y143.935 E19.01818
G1 X163.815 Y144.236 E19.03569
G1 X163.928 Y144.57 E19.05317
G1 X163.963 Y144.9 E19.06962
G1 X163.963 Y157.1 E19.67429
G1 X163.923 Y157.451 E19.6918
G1 X163.806 Y157.784 E19.7093
G1 X163.616 Y158.082 E19.72681
G1 X163.365 Y158.33 E19.7443
G1 X163.064 Y158.515 E19.76181
G1 X162.73 Y158.628 E19.77929
G1 X162.4 Y158.663 E19.79574
G1 X139.6 Y158.663 E20.92579
G1 X139.249 Y158.623 E20.9433
G1 X138.916 Y158.506 E20.9608
G1 X138.618 Y158.316 E20.97831
G1 X138.37 Y158.065 E20.9958
G1 X138.185 Y157.764 E21.01331
G1 X138.072 Y157.43 E21.03079
G1 X138.037 Y157.1 E21.04724
G1 X138.037 Y144.9 E21.65192
G1 X138.077 Y144.549 E21.66943
G1 X138.194 Y144.216 E21.68692
G1 X138.384 Y143.918 E21.70444
G1 X138.635 Y143.67 E21.72192
M204 S5000
M205 X30 Y30
G0 F3600 X139 Y144.179
M204 S500
M205 X20 Y20
G1 F600 X139.233 Y144.037 E21.73545
G1 X139.6 Y143.962 E21.75401
G1 X162.4 Y143.962 E22.88407
G1 X162.67 Y144.002 E22.8976
G1 X162.918 Y144.118 E22.91117
G1 X163.121 Y144.3 E22.92468
G1 X163.263 Y144.533 E22.9382
G1 X163.338 Y144.9 E22.95677
G1 X163.338 Y157.1 E23.56145
G1 X163.298 Y157.37 E23.57498
G1 X163.182 Y157.618 E23.58855
G1 X163 Y157.821 E23.60206
G1 X162.767 Y157.963 E23.61558
G1 X162.4 Y158.038 E23.63415
G1 X139.6 Y158.038 E24.76421
G1 X139.33 Y157.998 E24.77773
G1 X139.082 Y157.882 E24.7913
G1 X138.879 Y157.7 E24.80482
G1 X138.737 Y157.467 E24.81834
G1 X138.662 Y157.1 E24.83691
G1 X138.662 Y144.9 E25.44159
G1 X138.702 Y144.63 E25.45511
G1 X138.818 Y144.382 E25.46868
G1 X139 Y144.179 E25.4822
M204 S5000
M205 X30 Y30
G0 F3600 X139.435 Y144.634
M204 S500
M205 X20 Y20
G1 F600 X139.6 Y144.587 E25.4907
G1 X162.4 Y144.587 E26.62076
G1 X162.552 Y144.626 E26.62853
G1 X162.666 Y144.735 E26.63635
G1 X162.713 Y144.9 E26.64485
G1 X162.713 Y157.1 E27.24953
G1 X162.674 Y157.252 E27.25731
G1 X162.565 Y157.366 E27.26513
G1 X162.4 Y157.413 E27.27363
G1 X139.6 Y157.413 E28.40369
G1 X139.448 Y157.374 E28.41146
G1 X139.334 Y157.265 E28.41928
G1 X139.287 Y157.1 E28.42779
G1 X139.287 Y144.9 E29.03246
G1 X139.326 Y144.748 E29.04024
G1 X139.435 Y144.634 E29.04806
M204 S5000
M205 X30 Y30
G1 F2400 E26.04806
G0 F3600 X140.426 Y145.726
G0 X140.482 Y145.782
G0 X140.01 Y145.31
M204 S500
M205 X20 Y20
;TYPE:WALL-OUTER
G1 F2400 E29.04806
G1 F600 X161.99 Y145.31 E29.91959
G1 X161.99 Y156.69 E30.37082
G1 X140.01 Y156.69 E31.24235
G1 X140.01 Y145.31 E31.69358
M204 S5000
M205 X30 Y30
G0 F3600 X140.21 Y145.31
G0 X140.412 Y145.712
M204 S500
M205 X20 Y20
;TYPE:WALL-INNER
G1 F600 X161.588 Y145.712 E32.74314
G1 X161.588 Y156.288 E33.26733
G1 X140.412 Y156.288 E34.31689
G1 X140.412 Y145.712 E34.84108
M204 S5000
M205 X30 Y30
G0 F3600 X140.482 Y145.782
G0 X141.037 Y146.337
M204 S500
M205 X20 Y20
G1 F600 X160.963 Y146.337 E35.82869
G1 X160.963 Y155.663 E36.29092
G1 X141.037 Y155.663 E37.27853
G1 X141.037 Y146.337 E37.74076
M204 S5000
M205 X30 Y30
G0 F3600 X141.651 Y146.951
M204 S500
M205 X20 Y20
;TYPE:SKIN
G1 F600 X160.349 Y146.951 E38.6675
G1 X160.349 Y155.049 E39.06887
G1 X141.651 Y155.049 E39.99562
G1 X141.651 Y146.951 E40.39698
M204 S5000
M205 X30 Y30
G0 F3600 X142.1 Y154.598
M204 S500
M205 X20 Y20
G1 F600 X142.224 Y154.598 E40.40313
M204 S5000
M205 X30 Y30
M204 S500
M205 X20 Y20
G1 X142.1 Y154.474 E40.41182
M204 S5000
M205 X30 Y30
M204 S500
M205 X20 Y20
G1 X142.1 Y153.59 E40.45564
M204 S5000
M205 X30 Y30
M204 S500
M205 X20 Y20
G1 X143.108 Y154.598 E40.52629
M204 S5000
M205 X30 Y30
M204 S500
M205 X20 Y20
G1 X143.992 Y154.598 E40.57011
M204 S5000
M205 X30 Y30
M204 S500
M205 X20 Y20
G1 X142.1 Y152.706 E40.70272
M204 S5000
M205 X30 Y30
M204 S500
M205 X20 Y20
G1 X142.1 Y151.822 E40.74654
M204 S5000
M205 X30 Y30
M204 S500
M205 X20 Y20
G1 X144.876 Y154.598 E40.94112
M204 S5000
M205 X30 Y30
M204 S500
M205 X20 Y20
G1 X145.76 Y154.598 E40.98493
M204 S5000
M205 X30 Y30
M204 S500
M205 X20 Y20
G1 X142.1 Y150.939 E41.24144
M204 S5000
M205 X30 Y30
M204 S500
M205 X20 Y20
G1 X142.1 Y150.055 E41.28526
M204 S5000
M205 X30 Y30
M204 S500
M205 X20 Y20
G1 X146.644 Y154.598 E41.60373
M204 S5000
M205 X30 Y30
M204 S500
M205 X20 Y20
G1 X147.527 Y154.598 E41.64749
M204 S5000
M205 X30 Y30
M204 S500
M205 X20 Y20
G1 X142.1 Y149.171 E42.02789
M204 S5000
M205 X30 Y30
M204 S500
M205 X20 Y20
G1 X142.1 Y148.287 E42.07171
M204 S5000
M205 X30 Y30
M204 S500
M205 X20 Y20
G1 X148.411 Y154.598 E42.51407
M204 S5000
M205 X30 Y30
M204 S500
M205 X20 Y20
G1 X149.295 Y154.598 E42.55788
M204 S5000
M205 X30 Y30
M204 S500
M205 X20 Y20
G1 X142.1 Y147.403 E43.06221
M204 S5000
M205 X30 Y30
M204 S500
M205 X20 Y20
G1 X142.98 Y147.399 E43.10582
M204 S5000
M205 X30 Y30
M204 S500
M205 X20 Y20
G1 X150.179 Y154.598 E43.61043
M204 S5000
M205 X30 Y30
M204 S500
M205 X20 Y20
G1 X151.064 Y154.599 E43.65429
M204 S5000
M205 X30 Y30
M204 S500
M205 X20 Y20
G1 X143.864 Y147.399 E44.15897
M204 S5000
M205 X30 Y30
M204 S500
M205 X20 Y20
G1 X144.748 Y147.399 E44.20278
M204 S5000
M205 X30 Y30
M204 S500
M205 X20 Y20
G1 X151.948 Y154.599 E44.70746
M204 S5000
M205 X30 Y30
M204 S500
M205 X20 Y20
G1 X152.831 Y154.599 E44.75122
M204 S5000
M205 X30 Y30
M204 S500
M205 X20 Y20
G1 X145.632 Y147.399 E45.25586
M204 S5000
M205 X30 Y30
M204 S500
M205 X20 Y20
G1 X146.516 Y147.399 E45.29968
M204 S5000
M205 X30 Y30
M204 S500
M205 X20 Y20
G1 X153.715 Y154.599 E45.80432
M204 S5000
M205 X30 Y30
M204 S500
M205 X20 Y20
G1 X154.599 Y154.599 E45.84813
M204 S5000
M205 X30 Y30
M204 S500
M205 X20 Y20
G1 X147.399 Y147.399 E46.35281
M204 S5000
M205 X30 Y30
M204 S500
M205 X20 Y20
G1 X148.283 Y147.399 E46.39662
M204 S5000
M205 X30 Y30
M204 S500
M205 X20 Y20
G1 X155.483 Y154.599 E46.9013
M204 S5000
M205 X30 Y30
M204 S500
M205 X20 Y20
G1 X156.367 Y154.599 E46.94511
M204 S5000
M205 X30 Y30
M204 S500
M205 X20 Y20
G1 X149.167 Y147.399 E47.44979
M204 S5000
M205 X30 Y30
M204 S500
M205 X20 Y20
G1 X150.051 Y147.399 E47.4936
M204 S5000
M205 X30 Y30
M204 S500
M205 X20 Y20
G1 X157.251 Y154.599 E47.99828
M204 S5000
M205 X30 Y30
M204 S500
M205 X20 Y20
G1 X158.135 Y154.599 E48.04209
M204 S5000
M205 X30 Y30
M204 S500
M205 X20 Y20
G1 X150.935 Y147.399 E48.54677
M204 S5000
M205 X30 Y30
M204 S500
M205 X20 Y20
G1 X151.819 Y147.399 E48.59058
M204 S5000
M205 X30 Y30
M204 S500
M205 X20 Y20
G1 X159.019 Y154.599 E49.09526
M204 S5000
M205 X30 Y30
M204 S500
M205 X20 Y20
G1 X159.899 Y154.596 E49.13888
M204 S5000
M205 X30 Y30
M204 S500
M205 X20 Y20
G1 X152.703 Y147.399 E49.64331
M204 S5000
M205 X30 Y30
M204 S500
M205 X20 Y20
G1 X153.587 Y147.399 E49.68712
M204 S5000
M205 X30 Y30
M204 S500
M205 X20 Y20
G1 X159.899 Y153.712 E50.12959
M204 S5000
M205 X30 Y30
M204 S500
M205 X20 Y20
G1 X159.899 Y152.828 E50.1734
M204 S5000
M205 X30 Y30
M204 S500
M205 X20 Y20
G1 X154.471 Y147.399 E50.55391
M204 S5000
M205 X30 Y30
M204 S500
M205 X20 Y20
G1 X155.354 Y147.399 E50.59767
M204 S5000
M205 X30 Y30
M204 S500
M205 X20 Y20
G1 X159.899 Y151.944 E50.91625
M204 S5000
M205 X30 Y30
M204 S500
M205 X20 Y20
G1 X159.899 Y151.06 E50.96006
M204 S5000
M205 X30 Y30
M204 S500
M205 X20 Y20
G1 X156.238 Y147.399 E51.21668
M204 S5000
M205 X30 Y30
M204 S500
M205 X20 Y20
G1 X157.122 Y147.399 E51.26049
M204 S5000
M205 X30 Y30
M204 S500
M205 X20 Y20
G1 X159.899 Y150.176 E51.45514
M204 S5000
M205 X30 Y30
M204 S500
M205 X20 Y20
G1 X159.899 Y149.292 E51.49895
M204 S5000
M205 X30 Y30
M204 S500
M205 X20 Y20
G1 X158.006 Y147.399 E51.63164
M204 S5000
M205 X30 Y30
M204 S500
M205 X20 Y20
G1 X158.89 Y147.399 E51.67546
M204 S5000
M205 X30 Y30
M204 S500
M205 X20 Y20
G1 X159.899 Y148.408 E51.74618
M204 S5000
M205 X30 Y30
M204 S500
M205 X20 Y20
G1 X159.899 Y147.525 E51.78995
M204 S5000
M205 X30 Y30
M204 S500
M205 X20 Y20
G1 X159.774 Y147.399 E51.79874
M204 S5000
M205 X30 Y30
M204 S500
M205 X20 Y20
G1 X159.898 Y147.399 E51.80489
M204 S5000
M205 X30 Y30
G1 F2400 E48.80489
G0 F3600 X140.426 Y145.726
G0 X134.8 Y144.85
;TIME_ELAPSED:115.562834
;LAYER:1
M140 S65
M106 S255
G0 F5400 X134.8 Y144.85 Z0.5
M204 S500
M205 X20 Y20
;TYPE:SUPPORT
G1 F2400 E51.80489
G1 F900 X134.8 Y157.15 E52.24383
M204 S5000
M205 X30 Y30
M204 S500
M205 X20 Y20
G1 X138 Y157.15 E52.35802
M204 S5000
M205 X30 Y30
M204 S500
M205 X20 Y20
G1 X138.7 Y157.15 E52.383
M204 S5000
M205 X30 Y30
M204 S500
M205 X20 Y20
G1 X138.7 Y144.85 E52.82194
M204 S5000
M205 X30 Y30
M204 S500
M205 X20 Y20
G1 X138 Y144.85 E52.84692
M204 S5000
M205 X30 Y30
M204 S500
M205 X20 Y20
G1 X138 Y157.15 E53.28586
M204 S5000
M205 X30 Y30
G1 F2400 E50.28586
G0 F5400 X138 Y144.85
M204 S500
M205 X20 Y20
G1 F2400 E53.28586
G1 F900 X134.8 Y144.85 E53.40005
M204 S5000
M205 X30 Y30
G1 F2400 E50.40005
G0 F5400 X163.3 Y144.85
M204 S500
M205 X20 Y20
G1 F2400 E53.40005
G1 F900 X163.3 Y157.15 E53.83899
M204 S5000
M205 X30 Y30
M204 S500
M205 X20 Y20
G1 X167.2 Y157.15 E53.97816
M204 S5000
M205 X30 Y30
M204 S500
M205 X20 Y20
G1 X167.2 Y144.85 E54.4171
M204 S5000
M205 X30 Y30
M204 S500
M205 X20 Y20
G1 X163.3 Y144.85 E54.55628
M204 S5000
M205 X30 Y30
G1 F2400 E51.55628
G0 F5400 X161.736 Y145.564
G0 X160.75 Y146.55
M204 S500
M205 X20 Y20
;TYPE:WALL-INNER
G1 F2400 E54.55628
G1 F900 X160.75 Y155.45 E55.08562
G1 X141.25 Y155.45 E56.24541
G1 X141.25 Y146.55 E56.77475
G1 X160.75 Y146.55 E57.93455
M204 S5000
M205 X30 Y30
G0 F5400 X161.25 Y146.05
M204 S500
M205 X20 Y20
G1 F900 X161.25 Y155.95 E58.52336
G1 X140.75 Y155.95 E59.74263
G1 X140.75 Y146.05 E60.33145
G1 X161.25 Y146.05 E61.55072
M204 S5000
M205 X30 Y30
G0 F5400 X161.75 Y145.55
M204 S500
M205 X20 Y20
G1 F900 X161.75 Y156.45 E62.19902
G1 X140.25 Y156.45 E63.47776
G1 X140.25 Y145.55 E64.12606
G1 X161.75 Y145.55 E65.40481
M204 S5000
M205 X30 Y30
G0 F5400 X162.04 Y145.26
M204 S500
M205 X20 Y20
;TYPE:WALL-OUTER
G1 F600 X162.04 Y156.74 E65.95104
G1 X139.96 Y156.74 E67.00163
G1 X139.96 Y145.26 E67.54787
G1 X162.04 Y145.26 E68.59846
M204 S5000
M205 X30 Y30
G0 F5400 X162.04 Y145.46
G0 X161.68 Y145.62
G0 X160.26 Y147.04
M204 S500
M205 X20 Y20
;TYPE:SKIN
G1 F600 X160.26 Y154.96 E69.06952
G1 X141.74 Y154.96 E70.17102
G1 X141.74 Y147.04 E70.64208
G1 X160.26 Y147.04 E71.74358
M204 S5000
M205 X30 Y30
G0 F5400 X159.934 Y154.635
M204 S500
M205 X20 Y20
G1 F600 X159.934 Y154.021 E71.7801
M204 S5000
M205 X30 Y30
M204 S500
