;FLAVOR:Marlin
;TIME:798
;Filament used: 0.408031m
;Layer height: 0.3
;Generated with Cura_SteamEngine 3.3.1
M190 S65
M104 S200
M109 S200
M82 ;absolute extrusion mode
G28 ;Home
G1 Z15.0 F6000 ;Move the platform down 15mm
;Prime the extruder
G92 E0
G1 F200 E3
G92 E0
G92 E0
G1 F2400 E-3
;LAYER_COUNT:29
;LAYER:0
M107
M204 S5000
M205 X30 Y30
G0 F3600 X139.462 Y140.566 Z0.2
M204 S500
M205 X20 Y20
;TYPE:SKIRT
G1 F2400 E0
G1 F600 X140.572 Y139.457 E0.07777
G1 X140.99 Y139.093 E0.10524
G1 X142.241 Y138.145 E0.18304
G1 X142.704 Y137.841 E0.21049
G1 X144.072 Y137.072 E0.28827
G1 X144.572 Y136.835 E0.3157
G1 X146.032 Y136.259 E0.39349
G1 X146.498 Y136.106 E0.4178
G1 X147.637 Y135.809 E0.47614
G1 X148.108 Y135.716 E0.49993
G1 X149.663 Y135.502 E0.57773
G1 X150.217 Y135.464 E0.60525
G1 X151.786 Y135.464 E0.68302
G1 X152.342 Y135.502 E0.71064
G1 X153.898 Y135.717 E0.7885
G1 X154.438 Y135.83 E0.81584
G1 X155.948 Y136.253 E0.89356
G1 X156.467 Y136.437 E0.92086
G1 X157.907 Y137.061 E0.99864
G1 X158.346 Y137.284 E1.02304
G1 X159.363 Y137.88 E1.08147
G1 X159.765 Y138.148 E1.10542
G1 X161.016 Y139.097 E1.18324
G1 X161.434 Y139.462 E1.21075
G1 X162.543 Y140.572 E1.28852
G1 X162.907 Y140.99 E1.31599
G1 X163.855 Y142.241 E1.39378
G1 X164.159 Y142.704 E1.42124
G1 X164.928 Y144.072 E1.49902
G1 X165.165 Y144.572 E1.52644
G1 X165.741 Y146.032 E1.60423
G1 X165.894 Y146.498 E1.62854
G1 X166.191 Y147.637 E1.68689
G1 X166.284 Y148.108 E1.71068
G1 X166.498 Y149.662 E1.78843
G1 X166.536 Y150.216 E1.81595
G1 X166.536 Y151.786 E1.89377
G1 X166.498 Y152.342 E1.92139
G1 X166.283 Y153.898 E1.99924
G1 X166.17 Y154.438 E2.02659
G1 X165.747 Y155.948 E2.10431
G1 X165.563 Y156.467 E2.1316
G1 X164.939 Y157.907 E2.20939
G1 X164.716 Y158.346 E2.23379
G1 X164.12 Y159.363 E2.29222
G1 X163.852 Y159.765 E2.31616
G1 X162.903 Y161.016 E2.39399
G1 X162.538 Y161.434 E2.42149
G1 X161.428 Y162.543 E2.49926
G1 X161.01 Y162.907 E2.52673
G1 X159.759 Y163.855 E2.60453
G1 X159.296 Y164.159 E2.63198
G1 X157.928 Y164.928 E2.70977
G1 X157.494 Y165.139 E2.73368
G1 X156.407 Y165.59 E2.79201
G1 X155.945 Y165.75 E2.81625
G1 X154.433 Y166.173 E2.89406
G1 X153.959 Y166.275 E2.91809
G1 X152.795 Y166.455 E2.97647
G1 X152.311 Y166.501 E3.00057
G1 X150.742 Y166.554 E3.07838
G1 X150.191 Y166.535 E3.10571
G1 X148.63 Y166.375 E3.18348
G1 X148.079 Y166.28 E3.21119
G1 X146.554 Y165.907 E3.28901
G1 X145.966 Y165.715 E3.31966
G1 X144.155 Y164.966 E3.4168
G1 X143.654 Y164.716 E3.44455
G1 X142.637 Y164.12 E3.50297
G1 X142.235 Y163.852 E3.52692
G1 X140.984 Y162.903 E3.60475
G1 X140.566 Y162.538 E3.63225
G1 X139.457 Y161.428 E3.71002
G1 X139.093 Y161.01 E3.73749
G1 X138.145 Y159.759 E3.81529
G1 X137.841 Y159.296 E3.84274
G1 X137.072 Y157.928 E3.92052
G1 X136.835 Y157.428 E3.94795
G1 X136.259 Y155.968 E4.02574
G1 X136.106 Y155.502 E4.05005
G1 X135.809 Y154.363 E4.10839
G1 X135.716 Y153.892 E4.13218
G1 X135.502 Y152.337 E4.20998
G1 X135.464 Y151.783 E4.23751
G1 X135.464 Y150.214 E4.31527
G1 X135.502 Y149.658 E4.34289
G1 X135.717 Y148.102 E4.42075
G1 X135.83 Y147.562 E4.44809
G1 X136.253 Y146.052 E4.52581
G1 X136.437 Y145.533 E4.55311
G1 X137.061 Y144.093 E4.63089
G1 X137.284 Y143.654 E4.6553
G1 X137.88 Y142.637 E4.71372
G1 X138.148 Y142.235 E4.73767
G1 X139.097 Y140.984 E4.81549
G1 X139.462 Y140.566 E4.843
M204 S5000
M205 X30 Y30
G0 F3600 X139.904 Y141.008
M204 S500
M205 X20 Y20
G1 F600 X141.014 Y139.899 E4.92077
G1 X141.368 Y139.591 E4.94402
G1 X142.619 Y138.643 E5.02182
G1 X143.01 Y138.386 E5.04501
G1 X144.378 Y137.617 E5.12279
G1 X144.801 Y137.416 E5.146
G1 X146.261 Y136.84 E5.2238
G1 X146.656 Y136.711 E5.24439
G1 X147.795 Y136.414 E5.30273
G1 X148.193 Y136.335 E5.32284
G1 X149.748 Y136.121 E5.40064
G1 X150.217 Y136.089 E5.42394
G1 X151.786 Y136.089 E5.50171
G1 X152.257 Y136.121 E5.5251
G1 X153.813 Y136.336 E5.60296
G1 X154.269 Y136.431 E5.62604
G1 X155.779 Y136.854 E5.70377
G1 X156.219 Y137.01 E5.72691
G1 X157.659 Y137.634 E5.80469
G1 X158.03 Y137.823 E5.82533
G1 X159.047 Y138.419 E5.88375
G1 X159.387 Y138.646 E5.90401
G1 X160.638 Y139.595 E5.98184
G1 X160.992 Y139.904 E6.00513
G1 X162.101 Y141.014 E6.0829
G1 X162.409 Y141.368 E6.10616
G1 X163.357 Y142.619 E6.18395
G1 X163.614 Y143.01 E6.20714
G1 X164.383 Y144.378 E6.28492
G1 X164.584 Y144.801 E6.30814
G1 X165.16 Y146.261 E6.38593
G1 X165.289 Y146.656 E6.40652
G1 X165.586 Y147.795 E6.46486
G1 X165.665 Y148.193 E6.48498
G1 X165.879 Y149.747 E6.56272
G1 X165.911 Y150.216 E6.58602
G1 X165.911 Y151.786 E6.66384
G1 X165.879 Y152.257 E6.68724
G1 X165.664 Y153.813 E6.76509
G1 X165.569 Y154.269 E6.78818
G1 X165.146 Y155.779 E6.8659
G1 X164.99 Y156.219 E6.88904
G1 X164.366 Y157.659 E6.96682
G1 X164.177 Y158.03 E6.98746
G1 X163.581 Y159.047 E7.04588
G1 X163.354 Y159.387 E7.06615
G1 X162.405 Y160.638 E7.14397
G1 X162.096 Y160.992 E7.16726
G1 X160.986 Y162.101 E7.24503
G1 X160.632 Y162.409 E7.26829
G1 X159.381 Y163.357 E7.34609
G1 X158.99 Y163.614 E7.36928
G1 X157.622 Y164.383 E7.44706
G1 X157.255 Y164.562 E7.4673
G1 X156.168 Y165.013 E7.52563
G1 X155.776 Y165.148 E7.54617
G1 X154.264 Y165.571 E7.62399
G1 X153.863 Y165.658 E7.64433
G1 X152.699 Y165.838 E7.70271
G1 X152.29 Y165.876 E7.72307
G1 X150.721 Y165.929 E7.80088
G1 X150.254 Y165.913 E7.82404
G1 X148.693 Y165.753 E7.90181
G1 X148.227 Y165.673 E7.92525
G1 X146.702 Y165.3 E8.00306
G1 X146.205 Y165.137 E8.02898
G1 X144.394 Y164.388 E8.12612
G1 X143.97 Y164.177 E8.14959
G1 X142.953 Y163.581 E8.20801
G1 X142.613 Y163.354 E8.22828
G1 X141.362 Y162.405 E8.3061
G1 X141.008 Y162.096 E8.32939
G1 X139.899 Y160.986 E8.40716
G1 X139.591 Y160.632 E8.43042
G1 X138.643 Y159.381 E8.50822
G1 X138.386 Y158.99 E8.53141
G1 X137.617 Y157.622 E8.60919
G1 X137.416 Y157.199 E8.6324
G1 X136.84 Y155.739 E8.71019
G1 X136.711 Y155.344 E8.73079
G1 X136.414 Y154.205 E8.78913
G1 X136.335 Y153.807 E8.80924
G1 X136.121 Y152.252 E8.88704
G1 X136.089 Y151.783 E8.91034
G1 X136.089 Y150.214 E8.9881
G1 X136.121 Y149.743 E9.0115
G1 X136.336 Y148.187 E9.08935
G1 X136.431 Y147.731 E9.11244
G1 X136.854 Y146.221 E9.19016
G1 X137.01 Y145.781 E9.2133
G1 X137.634 Y144.341 E9.29109
G1 X137.823 Y143.97 E9.31172
G1 X138.419 Y142.953 E9.37015
G1 X138.646 Y142.613 E9.39041
G1 X139.595 Y141.362 E9.46824
G1 X139.904 Y141.008 E9.49153
M204 S5000
M205 X30 Y30
G0 F3600 X140.346 Y141.45
M204 S500
M205 X20 Y20
G1 F600 X141.456 Y140.341 E9.56929
G1 X141.745 Y140.089 E9.5883
G1 X142.996 Y139.141 E9.6661
G1 X143.317 Y138.931 E9.68511
G1 X144.685 Y138.162 E9.76289
G1 X145.031 Y137.997 E9.78189
G1 X146.491 Y137.421 E9.85968
G1 X146.813 Y137.316 E9.87647
G1 X147.952 Y137.019 E9.93481
G1 X148.278 Y136.954 E9.95128
G1 X149.833 Y136.74 E10.02908
G1 X150.217 Y136.714 E10.04816
G1 X151.786 Y136.714 E10.12592
G1 X152.171 Y136.74 E10.14505
G1 X153.727 Y136.955 E10.2229
G1 X154.101 Y137.033 E10.24184
G1 X155.611 Y137.456 E10.31956
G1 X155.97 Y137.584 E10.33845
G1 X157.41 Y138.208 E10.41624
G1 X157.714 Y138.362 E10.43313
G1 X158.731 Y138.958 E10.49155
G1 X159.009 Y139.144 E10.50813
G1 X160.26 Y140.093 E10.58596
G1 X160.55 Y140.346 E10.60503
G1 X161.659 Y141.456 E10.6828
G1 X161.911 Y141.745 E10.7018
G1 X162.859 Y142.996 E10.7796
G1 X163.069 Y143.317 E10.79861
G1 X163.838 Y144.685 E10.87639
G1 X164.003 Y145.031 E10.89539
G1 X164.579 Y146.491 E10.97319
G1 X164.684 Y146.813 E10.98997
G1 X164.981 Y147.952 E11.04831
G1 X165.046 Y148.278 E11.06479
G1 X165.26 Y149.832 E11.14254
G1 X165.286 Y150.216 E11.16161
G1 X165.286 Y151.786 E11.23943
G1 X165.26 Y152.171 E11.25855
G1 X165.045 Y153.727 E11.33641
G1 X164.967 Y154.101 E11.35534
G1 X164.544 Y155.611 E11.43307
G1 X164.416 Y155.97 E11.45196
G1 X163.792 Y157.41 E11.52974
G1 X163.638 Y157.714 E11.54663
G1 X163.042 Y158.731 E11.60506
G1 X162.856 Y159.009 E11.62164
G1 X161.907 Y160.26 E11.69946
G1 X161.654 Y160.55 E11.71854
G1 X160.544 Y161.659 E11.79631
G1 X160.255 Y161.911 E11.81531
G1 X159.004 Y162.859 E11.89311
G1 X158.683 Y163.069 E11.91212
G1 X157.315 Y163.838 E11.9899
G1 X157.015 Y163.984 E12.00644
G1 X155.928 Y164.435 E12.06477
G1 X155.608 Y164.546 E12.08155
G1 X154.096 Y164.969 E12.15937
G1 X153.768 Y165.04 E12.176
G1 X152.604 Y165.22 E12.23438
G1 X152.269 Y165.251 E12.25106
G1 X150.7 Y165.304 E12.32887
G1 X150.318 Y165.291 E12.34781
G1 X148.757 Y165.131 E12.42559
G1 X148.376 Y165.065 E12.44475
G1 X146.851 Y164.692 E12.52256
G1 X146.444 Y164.559 E12.54379
G1 X144.633 Y163.81 E12.64092
G1 X144.286 Y163.638 E12.66012
G1 X143.269 Y163.042 E12.71854
G1 X142.991 Y162.856 E12.73512
G1 X141.74 Y161.907 E12.81295
G1 X141.45 Y161.654 E12.83202
G1 X140.341 Y160.544 E12.90979
G1 X140.089 Y160.255 E12.92879
G1 X139.141 Y159.004 E13.00659
G1 X138.931 Y158.683 E13.0256
G1 X138.162 Y157.315 E13.10338
G1 X137.997 Y156.969 E13.12238
G1 X137.421 Y155.509 E13.20017
G1 X137.316 Y155.187 E13.21696
G1 X137.019 Y154.048 E13.2753
G1 X136.954 Y153.722 E13.29178
G1 X136.74 Y152.167 E13.36958
G1 X136.714 Y151.783 E13.38865
G1 X136.714 Y150.214 E13.46642
G1 X136.74 Y149.829 E13.48554
G1 X136.955 Y148.273 E13.5634
G1 X137.033 Y147.899 E13.58233
G1 X137.456 Y146.389 E13.66006
G1 X137.584 Y146.03 E13.67895
G1 X138.208 Y144.59 E13.75673
G1 X138.362 Y144.286 E13.77362
G1 X138.958 Y143.269 E13.83205
G1 X139.144 Y142.991 E13.84862
G1 X140.093 Y141.74 E13.92645
G1 X140.346 Y141.45 E13.94552
M204 S5000
M205 X30 Y30
G0 F3600 X140.788 Y141.892
M204 S500
M205 X20 Y20
G1 F600 X141.898 Y140.783 E14.02329
G1 X142.123 Y140.587 E14.03808
G1 X143.374 Y139.639 E14.11588
G1 X143.623 Y139.476 E14.13063
G1 X144.991 Y138.707 E14.20841
G1 X145.26 Y138.579 E14.22318
G1 X146.72 Y138.003 E14.30097
G1 X146.971 Y137.921 E14.31406
G1 X148.11 Y137.624 E14.3724
G1 X148.364 Y137.573 E14.38524
G1 X149.919 Y137.359 E14.46304
G1 X150.217 Y137.339 E14.47784
G1 X151.786 Y137.339 E14.5556
G1 X152.085 Y137.36 E14.57046
G1 X153.641 Y137.575 E14.64831
G1 X153.932 Y137.635 E14.66304
G1 X155.442 Y138.058 E14.74076
G1 X155.722 Y138.157 E14.75548
G1 X157.162 Y138.781 E14.83327
G1 X157.398 Y138.901 E14.84639
G1 X158.415 Y139.497 E14.90482
G1 X158.631 Y139.642 E14.91771
G1 X159.882 Y140.591 E14.99554
G1 X160.108 Y140.788 E15.0104
G1 X161.217 Y141.898 E15.08816
G1 X161.413 Y142.123 E15.10295
G1 X162.361 Y143.374 E15.18075
G1 X162.524 Y143.623 E15.1955
G1 X163.293 Y144.991 E15.27328
G1 X163.421 Y145.26 E15.28805
G1 X163.997 Y146.72 E15.36584
G1 X164.079 Y146.971 E15.37893
G1 X164.376 Y148.11 E15.43727
G1 X164.427 Y148.364 E15.45011
G1 X164.641 Y149.918 E15.52786
G1 X164.661 Y150.216 E15.54266
G1 X164.661 Y151.786 E15.62048
G1 X164.64 Y152.085 E15.63533
G1 X164.425 Y153.641 E15.71319
G1 X164.365 Y153.932 E15.72791
G1 X163.942 Y155.442 E15.80563
G1 X163.843 Y155.722 E15.82035
G1 X163.219 Y157.162 E15.89814
G1 X163.099 Y157.398 E15.91126
G1 X162.503 Y158.415 E15.96969
G1 X162.358 Y158.631 E15.98258
G1 X161.409 Y159.882 E16.06041
G1 X161.212 Y160.108 E16.07527
G1 X160.102 Y161.217 E16.15304
G1 X159.877 Y161.413 E16.16783
G1 X158.626 Y162.361 E16.24562
G1 X158.377 Y162.524 E16.26037
G1 X157.009 Y163.293 E16.33815
G1 X156.776 Y163.407 E16.35101
G1 X155.689 Y163.858 E16.40934
G1 X155.439 Y163.944 E16.42244
G1 X153.927 Y164.367 E16.50026
G1 X153.672 Y164.422 E16.51319
G1 X152.508 Y164.602 E16.57157
G1 X152.248 Y164.627 E16.58451
G1 X150.679 Y164.68 E16.66232
G1 X150.382 Y164.67 E16.67705
G1 X148.821 Y164.51 E16.75483
G1 X148.524 Y164.458 E16.76977
G1 X146.999 Y164.085 E16.84759
G1 X146.683 Y163.982 E16.86406
G1 X144.872 Y163.233 E16.96119
G1 X144.602 Y163.099 E16.97613
G1 X143.585 Y162.503 E17.03456
G1 X143.369 Y162.358 E17.04745
G1 X142.118 Y161.409 E17.12528
G1 X141.892 Y161.212 E17.14014
G1 X140.783 Y160.102 E17.21791
G1 X140.587 Y159.877 E17.2327
G1 X139.639 Y158.626 E17.31049
G1 X139.476 Y158.377 E17.32524
G1 X138.707 Y157.009 E17.40302
G1 X138.579 Y156.74 E17.41779
G1 X138.003 Y155.28 E17.49558
G1 X137.921 Y155.029 E17.50867
G1 X137.624 Y153.89 E17.56701
G1 X137.573 Y153.636 E17.57985
G1 X137.359 Y152.081 E17.65765
G1 X137.339 Y151.783 E17.67245
G1 X137.339 Y150.214 E17.75022
G1 X137.36 Y149.915 E17.76507
G1 X137.575 Y148.359 E17.84293
G1 X137.635 Y148.068 E17.85765
G1 X138.058 Y146.558 E17.93538
G1 X138.157 Y146.278 E17.9501
G1 X138.781 Y144.838 E18.02788
G1 X138.901 Y144.602 E18.041
G1 X139.497 Y143.585 E18.09943
G1 X139.642 Y143.369 E18.11232
G1 X140.591 Y142.118 E18.19015
G1 X140.788 Y141.892 E18.20501
M204 S5000
M205 X30 Y30
G0 F3600 X141.229 Y142.334
M204 S500
M205 X20 Y20
G1 F600 X142.339 Y141.225 E18.28278
G1 X142.5 Y141.085 E18.29335
G1 X143.751 Y140.137 E18.37115
G1 X143.929 Y140.021 E18.38168
G1 X145.297 Y139.252 E18.45946
G1 X145.489 Y139.16 E18.47001
G1 X146.949 Y138.584 E18.5478
G1 X147.129 Y138.526 E18.55718
G1 X148.268 Y138.229 E18.61552
G1 X148.449 Y138.193 E18.62466
G1 X150.004 Y137.979 E18.70246
G1 X150.217 Y137.964 E18.71305
G1 X151.786 Y137.964 E18.79081
G1 X152 Y137.979 E18.80144
G1 X153.556 Y138.194 E18.8793
G1 X153.764 Y138.237 E18.88982
G1 X155.274 Y138.66 E18.96755
G1 X155.473 Y138.731 E18.97802
G1 X156.913 Y139.355 E19.0558
G1 X157.082 Y139.441 E19.0652
G1 X158.099 Y140.037 E19.12363
G1 X158.254 Y140.14 E19.13285
G1 X159.505 Y141.089 E19.21068
G1 X159.666 Y141.229 E19.22125
G1 X160.775 Y142.339 E19.29902
G1 X160.915 Y142.5 E19.3096
G1 X161.863 Y143.751 E19.38739
G1 X161.979 Y143.929 E19.39792
G1 X162.748 Y145.297 E19.4757
G1 X162.84 Y145.489 E19.48626
G1 X163.416 Y146.949 E19.56405
G1 X163.474 Y147.129 E19.57342
G1 X163.771 Y148.268 E19.63176
G1 X163.807 Y148.449 E19.64091
G1 X164.021 Y150.003 E19.71866
G1 X164.036 Y150.216 E19.72924
G1 X164.036 Y151.786 E19.80706
G1 X164.021 Y152 E19.81769
G1 X163.806 Y153.556 E19.89554
G1 X163.763 Y153.764 E19.90607
G1 X163.34 Y155.274 E19.98379
G1 X163.269 Y155.473 E19.99427
G1 X162.645 Y156.913 E20.07205
G1 X162.559 Y157.082 E20.08145
G1 X161.963 Y158.099 E20.13987
G1 X161.86 Y158.254 E20.1491
G1 X160.911 Y159.505 E20.22692
G1 X160.771 Y159.666 E20.2375
G1 X159.661 Y160.775 E20.31527
G1 X159.5 Y160.915 E20.32584
G1 X158.249 Y161.863 E20.40364
G1 X158.071 Y161.979 E20.41417
G1 X156.703 Y162.748 E20.49195
G1 X156.536 Y162.83 E20.50117
G1 X155.449 Y163.281 E20.5595
G1 X155.271 Y163.342 E20.56883
G1 X153.759 Y163.765 E20.64664
G1 X153.577 Y163.805 E20.65588
G1 X152.413 Y163.985 E20.71426
G1 X152.227 Y164.002 E20.72352
G1 X150.658 Y164.055 E20.80133
G1 X150.446 Y164.048 E20.81184
G1 X148.885 Y163.888 E20.88961
G1 X148.673 Y163.851 E20.90028
G1 X147.148 Y163.478 E20.97809
G1 X146.922 Y163.404 E20.98988
G1 X145.111 Y162.655 E21.08701
G1 X144.918 Y162.559 E21.0977
G1 X143.901 Y161.963 E21.15612
G1 X143.746 Y161.86 E21.16535
G1 X142.495 Y160.911 E21.24317
G1 X142.334 Y160.771 E21.25375
G1 X141.225 Y159.661 E21.33152
G1 X141.085 Y159.5 E21.34209
G1 X140.137 Y158.249 E21.41989
G1 X140.021 Y158.071 E21.43042
G1 X139.252 Y156.703 E21.5082
G1 X139.16 Y156.511 E21.51875
G1 X138.584 Y155.051 E21.59654
G1 X138.526 Y154.871 E21.60592
G1 X138.229 Y153.732 E21.66426
G1 X138.193 Y153.551 E21.6734
G1 X137.979 Y151.996 E21.7512
G1 X137.964 Y151.783 E21.76178
G1 X137.964 Y150.214 E21.83955
G1 X137.979 Y150 E21.85018
G1 X138.194 Y148.444 E21.92804
G1 X138.237 Y148.236 E21.93856
G1 X138.66 Y146.726 E22.01629
G1 X138.731 Y146.527 E22.02676
G1 X139.355 Y145.087 E22.10454
G1 X139.441 Y144.918 E22.11394
G1 X140.037 Y143.901 E22.17237
G1 X140.14 Y143.746 E22.18159
G1 X141.089 Y142.495 E22.25942
G1 X141.229 Y142.334 E22.26999
M204 S5000
M205 X30 Y30
G0 F3600 X141.671 Y142.776
M204 S500
M205 X20 Y20
G1 F600 X142.781 Y141.667 E22.34776
G1 X142.877 Y141.583 E22.35408
G1 X144.128 Y140.635 E22.43188
G1 X144.235 Y140.565 E22.43822
G1 X145.603 Y139.796 E22.516
G1 X145.719 Y139.741 E22.52236
G1 X147.179 Y139.165 E22.60015
G1 X147.286 Y139.13 E22.60573
G1 X148.425 Y138.833 E22.66407
G1 X148.534 Y138.812 E22.66958
G1 X150.089 Y138.598 E22.74737
G1 X150.217 Y138.589 E22.75373
G1 X151.786 Y138.589 E22.8315
G1 X151.914 Y138.598 E22.83786
G1 X153.47 Y138.813 E22.91571
G1 X153.595 Y138.839 E22.92204
G1 X155.105 Y139.262 E22.99976
G1 X155.225 Y139.304 E23.00606
G1 X156.665 Y139.928 E23.08385
G1 X156.766 Y139.98 E23.08948
G1 X157.783 Y140.576 E23.1479
